images/icons/benchmark_icon.svg

<?xml version="1.0" encoding="UTF-8"?>
<svg xmlns="http://www.w3.org/2000/svg" xmlns:xlink="http://www.w3.org/1999/xlink" width="80pt" height="80pt" viewBox="0 0 80 80" version="1.1">
<g id="surface1">
<path style=" stroke:none;fill-rule:nonzero;fill:rgb(89.803922%,37.647059%,41.176471%);fill-opacity:1;" d="M 80 0 L 22.398438 0 L 22.398438 58 L 80 58 Z M 80 0 "/>
<path style=" stroke:none;fill-rule:nonzero;fill:rgb(17.254902%,25.490196%,32.941176%);fill-opacity:1;" d="M 46.199219 47.898438 L 56.199219 47.898438 L 56.199219 42.800781 C 56.601562 42.699219 57 42.5 57.398438 42.300781 L 61 45.898438 L 68.101562 38.800781 L 64.5 35.199219 C 64.699219 34.800781 64.800781 34.398438 65 34 L 70.101562 34 L 70.101562 24 L 65 24 C 64.898438 23.601562 64.699219 23.199219 64.5 22.800781 L 68.101562 19.199219 L 61 12.101562 L 57.398438 15.699219 C 57 15.5 56.601562 15.398438 56.199219 15.199219 L 56.199219 10.101562 L 46.199219 10.101562 L 46.199219 15.199219 C 45.800781 15.300781 45.398438 15.5 45 15.699219 L 41.398438 12.101562 L 34.300781 19.199219 L 37.898438 22.800781 C 37.699219 23.199219 37.601562 23.601562 37.398438 24 L 32.300781 24 L 32.300781 34 L 37.398438 34 C 37.5 34.398438 37.699219 34.800781 37.898438 35.199219 L 34.300781 38.800781 L 41.398438 45.898438 L 45 42.300781 C 45.398438 42.5 45.800781 42.601562 46.199219 42.800781 Z M 46.199219 47.898438 "/>
<path style=" stroke:none;fill-rule:nonzero;fill:rgb(89.803922%,37.647059%,41.176471%);fill-opacity:1;" d="M 51.199219 35.398438 C 54.699219 35.398438 57.601562 32.5 57.601562 29 C 57.601562 25.5 54.800781 22.601562 51.199219 22.601562 C 47.601562 22.601562 44.800781 25.5 44.800781 29 C 44.800781 32.5 47.699219 35.398438 51.199219 35.398438 Z M 51.199219 35.398438 "/>
<path style=" stroke:none;fill-rule:nonzero;fill:rgb(50.588235%,78.039216%,97.647059%);fill-opacity:1;" d="M 9.601562 13.5 L 0.300781 13.5 C 0.101562 13.5 -0.101562 13.300781 -0.101562 13.101562 L -0.101562 3 C -0.101562 2.800781 0.101562 2.601562 0.300781 2.601562 L 9.601562 2.601562 C 9.800781 2.601562 10 2.398438 10 2.199219 L 10 0.398438 C 10 0.199219 10.199219 0 10.398438 0 C 10.5 0 10.601562 0 10.699219 0.101562 L 18.300781 7.800781 C 18.398438 7.898438 18.398438 8.199219 18.300781 8.300781 L 10.699219 16 C 10.601562 16.101562 10.300781 16.101562 10.199219 16 C 10.101562 15.898438 10.101562 15.800781 10.101562 15.699219 L 10.101562 13.898438 C 10 13.699219 9.800781 13.5 9.601562 13.5 Z M 9.601562 13.5 "/>
<path style=" stroke:none;fill-rule:nonzero;fill:rgb(99.607843%,85.098039%,33.333333%);fill-opacity:1;" d="M 9.601562 34.5 L 0.300781 34.5 C 0.101562 34.5 -0.101562 34.300781 -0.101562 34.101562 L -0.101562 23.898438 C -0.101562 23.699219 0.101562 23.5 0.300781 23.5 L 9.601562 23.5 C 9.800781 23.5 10 23.300781 10 23.101562 L 10 21.300781 C 10 21.101562 10.199219 20.898438 10.398438 20.898438 C 10.5 20.898438 10.601562 20.898438 10.699219 21 L 18.300781 28.699219 C 18.398438 28.800781 18.398438 29.101562 18.300781 29.199219 L 10.699219 36.898438 C 10.601562 37 10.300781 37 10.199219 36.898438 C 10.101562 36.800781 10.101562 36.699219 10.101562 36.601562 L 10.101562 34.800781 C 10 34.601562 9.800781 34.5 9.601562 34.5 Z M 9.601562 34.5 "/>
<path style=" stroke:none;fill-rule:nonzero;fill:rgb(20.392157%,27.45098%,32.54902%);fill-opacity:1;" d="M 9.601562 55.398438 L 0.300781 55.398438 C 0.101562 55.398438 -0.101562 55.199219 -0.101562 55 L -0.101562 44.800781 C -0.101562 44.601562 0.101562 44.398438 0.300781 44.398438 L 9.601562 44.398438 C 9.800781 44.398438 10 44.199219 10 44 L 10 42.199219 C 10 42 10.199219 41.800781 10.398438 41.800781 C 10.5 41.800781 10.601562 41.800781 10.699219 41.898438 L 18.300781 49.601562 C 18.398438 49.699219 18.398438 50 18.300781 50.101562 L 10.699219 57.800781 C 10.601562 57.898438 10.300781 57.898438 10.199219 57.800781 C 10.101562 57.699219 10.101562 57.601562 10.101562 57.5 L 10.101562 55.699219 C 10 55.601562 9.800781 55.398438 9.601562 55.398438 Z M 9.601562 55.398438 "/>
</g>
</svg>

<svg xmlns="http://www.w3.org/2000/svg" width="80pt" height="80pt" viewBox="0 0 80 80"><path style="stroke:none;fill-rule:nonzero;fill:#e56069;fill-opacity:1" d="M80 0H22.398v58H80Zm0 0"/><path style="stroke:none;fill-rule:nonzero;fill:#2c4154;fill-opacity:1" d="M46.2 47.898h10v-5.097c.402-.102.8-.301 1.198-.5L61 45.898l7.102-7.097-3.602-3.602c.2-.398.3-.8.5-1.199h5.102V24H65c-.102-.398-.3-.8-.5-1.2l3.602-3.6L61 12.101l-3.602 3.597c-.398-.199-.796-.3-1.199-.5v-5.097h-10v5.097c-.398.102-.8.301-1.199.5l-3.602-3.597-7.097 7.097 3.597 3.602c-.199.398-.296.8-.5 1.199h-5.097v10h5.097c.102.398.301.8.5 1.2l-3.597 3.6 7.097 7.098L45 42.301c.398.199.8.3 1.2.5Zm0 0"/><path style="stroke:none;fill-rule:nonzero;fill:#e56069;fill-opacity:1" d="M51.2 35.398c3.5 0 6.402-2.898 6.402-6.398 0-3.5-2.801-6.398-6.403-6.398A6.38 6.38 0 0 0 44.801 29c0 3.5 2.898 6.398 6.398 6.398Zm0 0"/><path style="stroke:none;fill-rule:nonzero;fill:#81c7f9;fill-opacity:1" d="M9.602 13.5H.3c-.2 0-.403-.2-.403-.398V3c0-.2.204-.398.403-.398h9.3c.2 0 .399-.204.399-.403V.4c0-.2.2-.399.398-.399.102 0 .204 0 .301.102L18.301 7.8c.097.097.097.398 0 .5L10.699 16c-.097.102-.398.102-.5 0-.097-.102-.097-.2-.097-.3v-1.802C10 13.7 9.8 13.5 9.602 13.5Zm0 0"/><path style="stroke:none;fill-rule:nonzero;fill:#fed955;fill-opacity:1" d="M9.602 34.5H.3c-.2 0-.403-.2-.403-.398V23.898c0-.199.204-.398.403-.398h9.3c.2 0 .399-.2.399-.398V21.3c0-.2.2-.403.398-.403.102 0 .204 0 .301.102l7.602 7.7c.097.1.097.402 0 .5l-7.602 7.698c-.097.102-.398.102-.5 0-.097-.097-.097-.199-.097-.296V34.8c-.102-.2-.301-.301-.5-.301Zm0 0"/><path style="stroke:none;fill-rule:nonzero;fill:#344653;fill-opacity:1" d="M9.602 55.398H.3c-.2 0-.403-.199-.403-.398V44.8c0-.198.204-.402.403-.402h9.3c.2 0 .399-.199.399-.398v-1.8c0-.2.2-.4.398-.4.102 0 .204 0 .301.098l7.602 7.704c.097.097.097.398 0 .5L10.699 57.8c-.097.097-.398.097-.5 0-.097-.102-.097-.2-.097-.301v-1.8c-.102-.098-.301-.302-.5-.302Zm0 0"/></svg>
